assets/svg/1F562.svg

<svg xmlns="http://www.w3.org/2000/svg" viewBox="0 0 64 64" enable-background="new 0 0 64 64"><circle fill="#e0e7ec" cx="31.893" cy="31.891" r="29.544"/><path fill="#d1d7da" d="m52.12 47.01c-16.316 0-29.543-13.227-29.543-29.542 0-5.426 1.488-10.494 4.04-14.863-13.735 2.539-24.15 14.557-24.15 29.03 0 16.319 13.227 29.545 29.543 29.545 10.893 0 20.381-5.912 25.505-14.682-1.751.325-3.551.515-5.398.515"/><path fill="#98a9b4" d="m0 31.895c0 17.583 14.306 31.889 31.891 31.889 17.585 0 31.893-14.306 31.893-31.889 0-17.589-14.307-31.895-31.893-31.895-17.585 0-31.891 14.306-31.891 31.895m6.209 0c0-14.164 11.522-25.686 25.682-25.686 14.163 0 25.684 11.522 25.684 25.686 0 14.161-11.521 25.682-25.684 25.682-14.16 0-25.682-11.521-25.682-25.682"/><path fill="#85939c" d="m30.02 52.784c0 1.433.845 2.593 1.884 2.593l0 0c1.04 0 1.885-1.16 1.885-2.593v-21.01c0-1.437-.845-2.597-1.885-2.597l0 0c-1.04 0-1.884 1.16-1.884 2.597v21.01"/><path fill="#788288" d="m21.751 43.651c-.741 1.225-.616 2.655.272 3.19l0 0c.892.538 2.215-.022 2.954-1.251l7.854-13.02c.737-1.229.613-2.662-.278-3.194l0 0c-.888-.537-2.213.022-2.952 1.246l-7.85 13.03"/></svg>

<?xml version="1.0" encoding="UTF-8" standalone="no"?>
<!-- Generator: Adobe Illustrator 16.0.0, SVG Export Plug-In . SVG Version: 6.00 Build 0)  -->

<svg
   xmlns:dc="http://purl.org/dc/elements/1.1/"
   xmlns:cc="http://creativecommons.org/ns#"
   xmlns:rdf="http://www.w3.org/1999/02/22-rdf-syntax-ns#"
   xmlns:svg="http://www.w3.org/2000/svg"
   xmlns="http://www.w3.org/2000/svg"
   xmlns:sodipodi="http://sodipodi.sourceforge.net/DTD/sodipodi-0.dtd"
   xmlns:inkscape="http://www.inkscape.org/namespaces/inkscape"
   version="1.1"
   id="Layer_1"
   x="0px"
   y="0px"
   width="64px"
   height="64px"
   viewBox="0 0 64 64"
   enable-background="new 0 0 64 64"
   xml:space="preserve"
   inkscape:version="0.48.5 r10040"
   sodipodi:docname="1F562.svg"
   inkscape:export-filename="D:\TESTINGEMOJI\SVGTEST\1F562.png"
   inkscape:export-xdpi="90"
   inkscape:export-ydpi="90"><metadata
   id="metadata4312"><rdf:RDF><cc:Work
       rdf:about=""><dc:format>image/svg+xml</dc:format><dc:type
         rdf:resource="http://purl.org/dc/dcmitype/StillImage" /><dc:title></dc:title></cc:Work></rdf:RDF></metadata><defs
   id="defs4310" /><sodipodi:namedview
   pagecolor="#ffffff"
   bordercolor="#666666"
   borderopacity="1"
   objecttolerance="10"
   gridtolerance="10"
   guidetolerance="10"
   inkscape:pageopacity="0"
   inkscape:pageshadow="2"
   inkscape:window-width="640"
   inkscape:window-height="480"
   id="namedview4308"
   showgrid="false"
   inkscape:zoom="3.6875"
   inkscape:cx="32"
   inkscape:cy="32"
   inkscape:window-x="408"
   inkscape:window-y="251"
   inkscape:window-maximized="0"
   inkscape:current-layer="Layer_1" />
<g
   id="g4296">
	<circle
   fill="#E0E7EC"
   cx="31.893"
   cy="31.891"
   r="29.544"
   id="circle4298" />
	<path
   fill="#D1D7DA"
   d="M52.124,47.012c-16.316,0-29.543-13.227-29.543-29.542c0-5.426,1.488-10.494,4.039-14.863   C12.885,5.146,2.474,17.164,2.474,31.634c0,16.319,13.227,29.545,29.543,29.545c10.893,0,20.381-5.912,25.505-14.682   C55.771,46.822,53.971,47.012,52.124,47.012z"
   id="path4300" />
	<path
   fill="#98A9B4"
   d="M0,31.895c0,17.583,14.306,31.889,31.891,31.889c17.585,0,31.893-14.306,31.893-31.889   C63.784,14.306,49.477,0,31.891,0C14.306,0,0,14.306,0,31.895z M6.209,31.895c0-14.164,11.522-25.686,25.682-25.686   c14.163,0,25.684,11.522,25.684,25.686c0,14.161-11.521,25.682-25.684,25.682C17.731,57.577,6.209,46.056,6.209,31.895z"
   id="path4302" />
	<path
   fill="#85939C"
   d="M30.02,52.784c0,1.433,0.845,2.593,1.884,2.593l0,0c1.04,0,1.885-1.16,1.885-2.593V31.77   c0-1.437-0.845-2.597-1.885-2.597l0,0c-1.04,0-1.884,1.16-1.884,2.597V52.784z"
   id="path4304" />
	<path
   fill="#788288"
   d="M21.751,43.651c-0.741,1.225-0.616,2.655,0.272,3.19l0,0c0.892,0.538,2.215-0.022,2.954-1.251l7.854-13.019   c0.737-1.229,0.613-2.662-0.278-3.194l0,0c-0.888-0.537-2.213,0.022-2.952,1.246L21.751,43.651z"
   id="path4306" />
</g>
</svg>
